icons/sorbet.svg

<!--
  - The MIT License (MIT)
  -
  - Copyright (c) 2015-2024 Elior "Mallowigi" Boukhobza
  -
  - Permission is hereby granted, free of charge, to any person obtaining a copy
  - of this software and associated documentation files (the "Software"), to deal
  - in the Software without restriction, including without limitation the rights
  - to use, copy, modify, merge, publish, distribute, sublicense, and/or sell
  - copies of the Software, and to permit persons to whom the Software is
  - furnished to do so, subject to the following conditions:
  -
  - The above copyright notice and this permission notice shall be included in all
  - copies or substantial portions of the Software.
  -
  - THE SOFTWARE IS PROVIDED "AS IS", WITHOUT WARRANTY OF ANY KIND, EXPRESS OR
  - IMPLIED, INCLUDING BUT NOT LIMITED TO THE WARRANTIES OF MERCHANTABILITY,
  - FITNESS FOR A PARTICULAR PURPOSE AND NONINFRINGEMENT. IN NO EVENT SHALL THE
  - AUTHORS OR COPYRIGHT HOLDERS BE LIABLE FOR ANY CLAIM, DAMAGES OR OTHER
  - LIABILITY, WHETHER IN AN ACTION OF CONTRACT, TORT OR OTHERWISE, ARISING FROM,
  - OUT OF OR IN CONNECTION WITH THE SOFTWARE OR THE USE OR OTHER DEALINGS IN THE
  - SOFTWARE.
  -
  -->

<svg  version="1.1" xmlns="http://www.w3.org/2000/svg" viewBox="0 0 397 512" width="16px" height="16px">
  <path fill-rule="evenodd" clip-rule="evenodd" fill="#6255B0" data-iconColor="Sorbet"
        d="M360.7236023,154.0526733C343.5511169-53.4079132,57.9530869-48.1953049,42.9353981,150.7638092c-76.4746094,36.1391296-42.4995537,144.7216339,36.8890343,135.2783661v31.4230957h37.8645096l62.5890884,177.0480652c7.9766388,21.0282898,38.5569,25.5361633,49.0776062-0.109436l61.6768036-176.9386292h37.8421936v-30.8802795C398.8806152,282.0350037,423.9343262,192.9534912,360.7236023,154.0526733z M87.1976013,310.0921021v-21.3216858h12.4946823c3.3733673,8.777771,9.4368744,16.2161865,17.1757278,21.3216858H87.1976013z M321.5014648,310.0921021H285.793457l-63.3991241,181.8838196c-5.5983582,16.1540222-28.5093536,16.9546814-35.1650848,0.0792236L124.3040009,314.053833c18.2719727,7.1877441,35.429245,2.9086609,48.5148163-9.4295959v49.4398804c1.2198334,24.4881287,35.3646393,24.4881287,36.8658142,0v-57.1068115c25.236969,30.5674744,70.1486511,26.3343811,89.0519104-8.1868896h22.7649231V310.0921021z M114.6215897,46.8284073c-1.0778961,0.7970772-26.5469894,19.9428177-39.1749725,57.7137222c-2.4593811,7.3544846,8.7285309,11.095787,11.187912,3.7413025c11.3758392-34.024559,34.6985092-51.7424698,35.0059662-51.9728813C127.933876,51.6520576,120.9149704,42.1699104,114.6215897,46.8284073z M25.443037,172.0789337c-4.5518055,7.0285645,5.3378811,13.4595642,9.8896885,6.4309998c3.6901817-5.6515656,12.6603813-14.7945709,31.2077789-12.5048523c7.8815918,0.971283,9.3245468-10.7379456,1.4429474-11.7092285C42.1385002,151.1104279,29.6221237,165.6763763,25.443037,172.0789337z M167.4152222,172.6139221c-0.6645966-3.2461853,1.8285217-6.2897797,5.1414948-6.2897797h50.8827515c3.312973,0,5.8060913,3.0435944,5.14151,6.2897797C221.1217499,205.927597,174.8394012,205.6823273,167.4152222,172.6139221z M184.2468567,187.2246094c0.7901764,9.4029388,26.8962555,9.1971893,27.7388306,0C210.9116364,177.414505,184.4197388,178.5204773,184.2468567,187.2246094z M337.6072083,160.4744873c-19.6173706-9.0536804-42.7833252-1.8000946-49.9546204,13.9672394c-3.2691956,7.2615204,7.1654053,11.9805298,10.6162109,5.1453857c5.544281-11.4406433,22.6940613-13.8873291,34.3298645-8.4316254C339.8199768,174.0828705,344.4839172,164.2611542,337.6072083,160.4744873z M14.3425875,194.9941711c-4.5919399-2.6473083-4.5919418-9.3014984-0.000001-11.9488068s10.3630314,0.6797943,10.3630314,5.9743958C24.7056179,194.3143768,18.9345284,197.6414795,14.3425875,194.9941711z M123.2043915,170.1508789c-10.2446976-5.9061737-10.2446976-20.7517853-0.0000076-26.657959c10.2446976-5.906189,23.120079,1.5166168,23.120079,13.3289795S133.4490814,176.0570679,123.2043915,170.1508789z M260.3039246,170.1508789c-10.2446747-5.9061737-10.2446899-20.7517853,0-26.657959c10.2446899-5.906189,23.1200867,1.5166168,23.1200867,13.3289795S270.5486145,176.0570679,260.3039246,170.1508789z M279.7182312,201.0440369c-5.0137024-2.8904572-5.0137024-10.1558533,0-13.0463104c5.0137329-2.8904572,11.3148804,0.7422333,11.3148804,6.5231628C291.0331116,200.3018036,284.7319641,203.9345093,279.7182312,201.0440369z M129.3897552,46.4096375c-5.01371-2.890461-5.01371-10.1558533,0-13.0463142c5.0137177-2.8904629,11.3148956,0.7422333,11.3148956,6.5231552S134.4034729,49.3000984,129.3897552,46.4096375z"/>
</svg>

<svg xmlns="http://www.w3.org/2000/svg" viewBox="0 0 397 512"><path fill="#6255b0" fill-rule="evenodd" d="M360.724 154.053c-17.173-207.46-302.77-202.248-317.789-3.29-76.474 36.14-42.5 144.722 36.89 135.28v31.422h37.864l62.589 177.048c7.977 21.029 38.557 25.536 49.078-.11l61.676-176.938h37.843v-30.88c70.006-4.55 95.06-93.632 31.849-132.532M87.198 310.093V288.77h12.494c3.374 8.778 9.437 16.217 17.176 21.322zm234.303 0h-35.708l-63.399 181.883c-5.598 16.154-28.509 16.955-35.165.08l-62.925-178.002c18.272 7.188 35.43 2.908 48.515-9.43v49.44c1.22 24.488 35.364 24.488 36.866 0v-57.107c25.237 30.568 70.148 26.335 89.052-8.187H321.5zM114.621 46.827c-1.077.797-26.546 19.943-39.174 57.714-2.46 7.355 8.728 11.096 11.188 3.741C98.01 74.26 121.333 56.541 121.64 56.311c6.294-4.659-.725-14.141-7.018-9.483m-89.178 125.25c-4.552 7.03 5.338 13.46 9.89 6.432 3.69-5.652 12.66-14.795 31.208-12.505 7.881.971 9.324-10.738 1.442-11.71-25.844-3.185-38.36 11.381-42.54 17.784m141.972.536c-.664-3.246 1.829-6.29 5.142-6.29h50.882c3.313 0 5.807 3.044 5.142 6.29-7.46 33.314-53.742 33.068-61.166 0m16.832 14.61c.79 9.404 26.896 9.198 27.739 0-1.074-9.81-27.566-8.704-27.74 0m153.36-26.75c-19.617-9.053-42.783-1.8-49.954 13.968-3.27 7.261 7.165 11.98 10.616 5.145 5.544-11.44 22.694-13.887 34.33-8.432 7.221 2.928 11.885-6.894 5.008-10.68m-323.264 34.52c-4.592-2.647-4.592-9.301 0-11.949s10.363.68 10.363 5.975c0 5.294-5.771 8.621-10.363 5.974m108.861-24.843c-10.244-5.906-10.244-20.752 0-26.658s23.12 1.517 23.12 13.329-12.875 19.235-23.12 13.329m137.1 0c-10.245-5.906-10.245-20.752 0-26.658s23.12 1.517 23.12 13.329-12.875 19.235-23.12 13.329m19.414 30.893c-5.013-2.89-5.013-10.156 0-13.046 5.014-2.89 11.315.742 11.315 6.523s-6.301 9.414-11.315 6.523M129.39 46.41c-5.014-2.89-5.014-10.156 0-13.047 5.013-2.89 11.315.743 11.315 6.523s-6.302 9.414-11.315 6.524" clip-rule="evenodd" data-iconColor="Sorbet"/></svg>
